source/img/icon-gift.svg

<svg width="32" height="38" viewBox="0 0 32 38" fill="none" xmlns="http://www.w3.org/2000/svg">
<path d="M30.5778 11.2058H30.527H18.1841C25.0921 7.76156 25.6508 5.58358 25.3968 4.36796C24.8381 2.39259 22.5524 0.873068 20.419 1.68348C17.6254 2.74714 16.8635 6.9005 16.1016 9.88889C15.1365 6.84985 14.2222 3.0004 12.0381 1.02502C11.4286 0.467863 10.5143 -0.0892942 9.14286 0.0120071C7.11111 0.21461 4.21587 2.69649 5.43492 5.48228C6.55238 8.16676 10.2603 9.88888 12.7492 11.2565H1.42222C0.609524 11.2565 0 11.9149 0 12.6747V18.3475C0 19.158 0.660317 19.7658 1.42222 19.7658H1.5746V38H30.527V19.7658H30.5778C31.3905 19.7658 32 19.1073 32 18.3475V12.6747C32 11.8643 31.3397 11.2058 30.5778 11.2058ZM21.2317 2.94975C22.2984 2.79779 23.7206 3.6082 23.873 4.57057C24.0762 5.93813 22.1968 7.2044 21.3333 7.76156C20.0635 8.62262 18.8444 9.07847 17.6762 9.78758C18.0825 7.91351 18.946 3.25365 21.2317 2.94975ZM9.75238 7.91351C8.63492 7.15375 6.50159 5.68488 6.55238 4.01341C6.60317 2.18999 9.44762 0.721116 10.9714 2.08868C12.9016 3.76016 13.8159 7.66026 14.527 10.3954C12.9016 9.58498 11.3778 8.97717 9.75238 7.91351ZM12.7492 36.4805H3.04762V19.7658H12.7492V36.4805ZM12.7492 18.2462H1.52381V12.7253H12.7492V18.2462ZM17.8286 36.4805H14.2222V12.7253H17.8286V36.4805ZM29.0032 36.4805H19.3524V19.7658H29.054V36.4805H29.0032ZM30.4762 18.2462H19.3524V12.7253H30.4762V18.2462Z" fill="#81B3D2"/>
</svg>

<svg width="32" height="38" viewBox="0 0 32 38" fill="none" xmlns="http://www.w3.org/2000/svg"><path d="M30.58 11.2h-12.4c6.91-3.44 7.47-5.62 7.22-6.83-.56-1.98-2.85-3.5-4.98-2.69-2.8 1.07-3.56 5.22-4.32 8.2-.96-3.03-1.88-6.88-4.06-8.85A3.7 3.7 0 0 0 9.14 0c-2.03.2-4.92 2.69-3.7 5.47 1.11 2.69 4.82 4.4 7.3 5.78H1.43c-.81 0-1.42.65-1.42 1.41v5.68c0 .8.66 1.42 1.42 1.42h.15V38h28.96V19.77h.05c.81 0 1.42-.66 1.42-1.42v-5.68c0-.8-.66-1.46-1.42-1.46Zm-9.35-8.25c1.07-.15 2.5.66 2.64 1.62.2 1.37-1.67 2.63-2.54 3.2-1.27.85-2.49 1.3-3.65 2.02.4-1.88 1.27-6.54 3.55-6.84ZM9.75 7.91c-1.12-.76-3.25-2.23-3.2-3.9C6.6 2.2 9.45.72 10.97 2.1c1.93 1.67 2.85 5.57 3.56 8.3-1.63-.8-3.15-1.41-4.78-2.48Zm3 28.57h-9.7V19.77h9.7v16.71Zm0-18.23H1.52v-5.52h11.23v5.52Zm5.08 18.23h-3.6V12.73h3.6v23.75Zm11.17 0h-9.65V19.77h9.7v16.71H29Zm1.48-18.23H19.35v-5.52h11.13v5.52Z" fill="#81B3D2"/></svg>
